X:1
T:Les pêcheurs de perles
T:Au fond du temple saint
T:G. Bizet 
T:from the opera: Les pêcheurs de perles (Act I)
C:G.Bizet
%%score { 1 2 } { ( 3 6 ) | ( 4 5 ) }
L:1/8
Q:1/4=60
M:4/4
K:D
V:1 treble-8 nm="Nadir" snm="N."
V:2 bass nm="Zugra" snm="Z."
V:3 treble nm="Piano" snm="Pno"
V:6 treble 
V:4 bass 
V:5 bass 
V:1
 z8 | z4 z2 z!p! E | A3 A B3 F | A4 z2 z A | d3 d e3 B | d4 z2 z d/d/ | g4 f3 f | e2- e z z2 z d | %8
w: |Au|fond du tem- ple|saint pa-|ré de fleurs et|d'or U- ne|femme ap- pa-|rait * Je|
 c3 c B3 B | A2 z2 z4 | z8 | z8 | z A A2- AA A>A | B2 B z z4 | z2 B>B B2- (3BBB | c2 c z z4 | %16
w: crois la voir en-|cor|||La fon- * le pros- ter-|né- e|La re- gar- de et- on-|ne- e|
 z2 (3:2:2A2 A B2 B>B | ^G2 z2 z c c2 | z FBA ^G4 | A2 z2 z2 A>A | B4 B3 B | c3 c/ z/ d2 F2 | %22
w: Et mur- mu- re tout|bas Vo- yez|c'est la dé- es-|se Qui dans|l'om- bre se|dres- se Et vers|
 G4 A3 A | A2- A z z4 | z8 | z8 | z8 | z8 | z8 | z4!p! d3 d | c3 c d2 d>d | B2 B z c3 c | %32
w: nous tend les|bras *||||||Oui c'est|el- le, C'est la dé-|es- se plus char-|
!mp! (d2 ef) g3 f | f2 e z!p! d3 d | c3 c d2 d>d | B2 B z!mp! c2 de |!mf! (fe)dc B3 A | %37
w: mante * * et plus|be- le, oui, c'est|el- le, c'est la dé-|es- se qui * des-|cend * * * par- mi-|
 A2 z2!mp! a4 | f3 f g3 g | e2 e z!mf! f2 d2 | (Bc)(de) e3 d |!f! d2- d z z4 | z8 | z8 | z8 | z8 | %46
w: nous Son|voi- le se sou-|lè- ve Et la|fou- le est * à ge-|noux *|||||
 z8 |!mp! A2 AA B3 F | A2 A2 z2 AA | d4 e3 B | d2 d2 z4 | z8 | z8 | z4 z2 BB | A4 z A A2 | %55
w: |Mais à tra- vers la|fou- le el- le|s'ouvre un pa-|sa- ge|||Mon re-|gard hé- las|
 z AAA A2- A z |[K:D][M:4/4][Q:1/4=60]"^A tempo" z4!mp! d3 d | c3 c d2 d>d | B2 B z c3 c | %59
w: La cherche en vain *|Oui, c'est|el- le, C'est la dé-|es- se En ce|
 d2 ef g3 f | (f2 e) z d3 d | c4 d2 d>d | B2 B z c2 (de) |!mf! fedc B3 A | A2 z2!p! a4 | %65
w: jour qui vient- nous u-|nir * Et fi-|déle á ma pro-|mes- se, Comme un *|fré- re je veux te ché-|rir! C'est|
 f3 f g2 g>g | e2 e z!mp! f2 d2 | (Bc)(de) e3 d |!mf! d2- d z A2 A>A | B4 c2 c>c | %70
w: el- le, c'est la dé-|es- se Qui vient|en ce jour * nous u|nir! * Oui, par- ta-|geous le mê- me|
!f! d2- d z e2 e>e | f z d2[Q:1/4=32]!ff! !fermata!a7/2[Q:1/4=65] c/ | d4- d z z2 | z8 | z8 |] %75
w: sort, * Soy- ons u-|nis jus- qu'à la|mort! _|||
V:2
 z8 | z8 | z8 | z8 | z8 | z8 | z8 | z2 z!p! G,/G,/ F,2 F,>F, | E,2 z2 z4 | z A, A,2 z ^G, G,2 | %10
w: |||||||U- ne femme ap- pa-|rait|Je crois la voir|
 z =G, G,2- G, z z2 | z8 | z8 | z8 | z8 | z8 | z8 | z8 | z8 | z8 | z8 | z8 | z8 | z4 z2 z F, | %24
w: en- core! *|||||||||||||Son|
 F,3 F, G,3 G, | G,2 G, z z2!mp! A,2 | z2 z A,/A,/ ^A,2 z A, | ^A,2 A, z z2 z!mf! =C | %28
w: voi- le se sou-|le- ve O|vi- si- on! Ô|rê- ve! La|
 =C3 C/ z/!f! ^C2 C>C | C4!p! D3 F, | A,3 A, F,2 F,>F, | G,2 G, z ^A,3 A, |!mp! B,4 B,3 B, | %33
w: fou- le est á ge-|noux Oui c'est|el- le, C'est la dé-|es- se plus char-|mante et plus|
 C2 C z!p! D3 F, | A,3 A, F,2 F,>F, | ^G,2 G, z!mp! E,3 E, |!mf! (D,2 F,2) ^G,3 A, | %37
w: be- le, oui, c'est|el- le, c'est la dé-|es- se qui des-|cend * par- mi-|
 A,2 z2!mp! C4 | D3 D B,3 B, | C2 C z D2 F,2 | G,3 G, C,3 D, |!p! D,2- D, z z4 | z8 | z8 | z8 | %45
w: nous Son|voi- le se sou-|lè- ve Et la|foule est á ge-|noux *||||
 z8 | z8 | z8 | z8 | z8 | z4 z2!mp! A,A, | B,2 B, z z A, A,2 | z G, G,2- G,F,F,F, | E,2 E, z z4 | %54
w: |||||Son long|voi- le dé- jà|nous ca- * che son vi-|sa- ge|
 z8 | z8 |[K:D][M:4/4] z4!mp! D3 F, | A,3 A, F,2 F,>F, | G,2 G, z ^A,4 | B,4 B,3 B, | %60
w: ||Oui, c'est|el- le, C'est la dé-|es- se qui|vient nous u-|
 C2- C z D3 F, | A,4 F,2 F,>F, | ^G,2 G, z E,4 |!mf! D,2 F,2 ^G,3 A, | A,2 z2!p! C4 | %65
w: nir * Et fi-|déle á ma pro-|mes- se, Je|veux * te ché-|rir! C'est|
 D3 D B,2 B,>B, | C2 C z!mp! D2 F,2 | G,4 C,3 D, |!mf! D,2- D, z C,2 C,>C, | D,4 E,2 E,>E, | %70
w: el- le, c'est la dé-|es- se Qui *|vient nous u-|nir! * Oui, par- ta-|geous le mê- me|
!f! F,2- F, z A,2 A,>A, | D z B,2!ff! !fermata!C7/2 A,/ | D4- D z z2 | z8 | z8 |] %75
w: sort, * Soy- ons u-|nir jus- qu'a la|mort! _|||
V:3
!mf! E8 | C8 |!p! ([Ec][Ae][ca][Ae] [Fd][Bf][db][Bf]) | ([Ec][Ae][ca][Ae] [Ec][Ae][ca][Ae]) | %4
 ([Af][da][fd'][da] [Bg][eb][ge'][eb]) | ([Ae][da][fd'][da] [Af][da][fd'][da]) | %6
!8va(! ([db][gd'][bg'][gd'] [ca][fc'][af'][fc'])!8va)! | ([Bg][eb][ge'][eb] [Af][da][fd'][da]) | %8
 ([Ge][cg][ec'][cg] [Fd][Bf][db][Bf] | [Ec][Ae][ca][Ae] [=Fd][B=f][d^g][Bf] | %10
 [Ed][_Be][dg][Be] [Gc][EA][CG][A,E]) | [F,D]2 A,/D/F/A/!mp! d4 | c4 d4 | B4 c4 | d2 ef g3 f | %15
 f2 e z d4 | c4 d4 | B4 c2 de | fedc B4 | A2- A z a4 | f4 g4 | e4 f2 d2 | Bcde e4 | %23
 d2 A,/D/F/A/ [df]4 | [df]2 [ce][df] [Gg]3 [Gg] | [G=ceg]2- [Gceg] z [Ac=fa]4 | %26
 [Ad=fa]2 [Geg][Afa] [^A^a]3 [Aa] | [^A^dg^a]2- [Adga] z!mf! [=cd^g=c']4 | %28
 [=c=f^g=c']2 [^A=g^a][c^gc']!f! [^c^c']3 [cc'] | [cegac']4!p! [dfd']4 | [ceac']4 [dfad']4 | %31
 [Bdgb]4 [cf^ac']4 |!mp! [dfbd']2 [ee'][ff'] [gbe'g']3 [ff'] | [gac'f']2 [gac'e'] z!p! [dfad']4 | %34
 [cfac']4 [dfbd']4 | [Be^gb]4!mp! [cegc']2 [dd'][ee'] |!mf! [fbd'f'][ee'][dd'][cc'] [de^gb]4 | %37
 [cea]2- [cea] z!mp! [Aca]4 | [FBdf]4 [GBdg]4 | [EGce]4!mf! [FBdf]2 [dd']2 | %40
 [Begb][cc'][dd'][ee'] [egac'e']4 |!f! [dfad']2 A,/D/F/A/!ff! [Acea]2 A/c/e/a/ | %42
 [Bdfab]2 F/d/f/b/ [Acea]2 A/c/e/a/ | [Bdfab]2 F/d/f/b/ [Acea]2 A/c/e/a/ | %44
!f! [ABdf]2 F/B/d/f/ [GAce]2 G/A/c/e/ |!mf! [FAd]2 A,/D/F/A/ d/ z/ z F/A/d/f/ | %46
 a/f/a/f/ a/f/a/f/ a/f/a/f/ a/f/a/f/ |!mp! [Ec][Ae][ca][Ae] [Fd][Bf][db][Bf] | %48
 [Ec][Ae][ca][Ae] [Ec][Ae][ca][Ae] | [Af][da][fd'][da] [Bg][eb][ge'][eb] | %50
 [Af][da][fd'][da] [Af][da][fd'][da] |!8va(! [db][gd'][bg'][gd'] [ca][fc'][af'][ec']!8va)! | %52
 [Bg][eb][ge'][eb] [Af][da][fd'][da] | [Ge][cg][ec'][cg] [Fd][Bf][db][Bf] | %54
 [Ec][Ae][ca][Ae] [=Fd][B=f][d^g][Bf] | [Ed][_Be][dg][Be] [Gc][EA][CG][A,E] | %56
[K:D][M:4/4] D/F/A/d/ D/F/A/d/!mp! [dfad']4 | [ceac']4 [dfad']4 | [Bdgb]4 [cf^ac']4 | %59
 [dfbd']2 [ee'][ff'] [gbe'g']3 [ff'] | ([gac'f']2 [gac'e']) z [dfad']4 | [cfac']4 [dfbd']4 | %62
 [Be^gb]4 [cegc']2 [dd'][ee'] |!mf! [ff'][ee'][dd'][cc'] [de^gb]4 | [cea]2- [cea] z!p! [Aca]4 | %65
 [FBdf]4 [GBdg]4 | [EGce]4!mp! [FBdf]2 [dd']2 | [Begb][cc'][dd'][ee'] [egac'e']4 | %68
!mf! [dfad']2 A,/C/F/A/ [Acea]2 A/B/e/a/ | [Bdfab]2 F/d/f/b/ [Acea]2 A/c/e/a/ | %70
!f! [Bdfab]2 F/d/f/b/ [Acea]2 A/B/e/a/ | [ABdf]2 F/B/d/f/!ff! !///-![Aceg] a [Aceg] z | %72
 !///-![fad']2 d2 !///-![fad']2 d2 | [fad'] z z2 [dfad']2 z2 | D8 |] %75
V:4
 [E,,E,]8 | [C,,C,]8 | z ([C,A,][E,C][C,A,] [F,D][D,B,][F,D][D,B,]) | %3
 ([E,C][C,A,][E,C][C,A,] [E,C][C,A,][E,C][C,A,]) | z ([F,D][A,F][F,D] [B,G][G,E][B,G][G,E]) | %5
 ([A,F][F,D][A,F][F,D] [A,F][F,D][A,F][F,D]) | z[K:treble] ([B,G][DB][B,G] [CA][A,F][CA][A,F]) | %7
 ([B,G][G,E][B,G][G,E] [A,F][F,D][A,F][F,D]) | %8
[K:bass] ([A,,,A,,][E,C][G,E][E,C] [F,D][D,B,][F,D][D,B,] | %9
 [A,,,A,,][C,A,][E,C][C,A,] [=F,B,][D,A,][F,B,][D,A,] | %10
 [E,_B,][D,G,][E,B,][D,G,] [E,A,][C,G,][E,A,][C,G,]) | D,,/A,,/D,/F,/ z2 D,,/A,,/D,/F,/ z2 | %12
 A,,,/A,,/C,/E,/ z2 D,,/A,,/D,/F,/ z2 | G,,/B,,/D,/G,/ z2 F,,/C,/F,/^A,/ z2 | %14
 B,,,/B,,/D,/F,/ B,/F,/D,/B,,/ E,,/B,,/E,/G,/ B,/G,/E,/B,,/ | %15
 A,,,/A,,/C,/G,/ A,/G,/C,/A,,/ D,,/A,,/D,/F,/ z2 | F,,/A,,/C,/F,/ z2 B,,,/B,,/D,/F,/ z2 | %17
 E,,/^G,,/B,,/E,/ z2 C,,/G,,/C,/E,/ ^G,/E,/C,/G,,/ | %18
 B,,,/B,,/D,/F,/ B,/F,/D,/B,,/ E,,/^G,,/D,/E,/ z2 | A,,,/A,,/C,/E,/ z2 F,,/C,/F,/A,/ C/A,/F,/C,/ | %20
 B,,/D,/F,/B,/ D/B,/F,/D,/ G,,/D,/G,/B,/ D/B,/G,/D,/ | %21
 C,,/C,/E,/G,/ C/G,/E,/C,/ B,,,/D,/F,/B,/ D/B,/F,/D,/ | %22
 E,,/B,,/E,/G,/ B,/G,/E,/B,,/ A,,,/A,,/C,/G,/ A,/G,/C,/A,,/ | %23
 D,,/A,,/D,/F,/ z2 D,/F,/A,/D/ F/D/A,/F,/ | B,,/F,/B,/D/ F/D/B,/F,/ G,,/=F,/G,/B,/ =F/B,/G,/F,/ | %25
 =C,/E,/G,/=C/ E/C/G,/E,/ =F,/F,/A,/C/ =F/C/A,/F,/ | %26
 D,/=F,/A,/D/ =F/D/A,/F,/ ^A,,/^G,/^A,/D/ ^G/D/A,/G,/ | %27
 ^D,/G,/^A,/^D/ G/D/A,/F,/ ^G,/G,/^B,/D/ ^G/D/B,/G,/ | %28
 =F,/^G,/=C/=F/ _A/F/C/G,/ C,/G,/B,/^C/ F/C/B,/G,/ | %29
 A,,/G,/A,/C/ E/C/A,/G,/ D,,/A,,/D,/F,/ A,/F,/D,/A,,/ | %30
 A,,,/A,,/C,/E,/ A,/E,/C,/A,,/ D,,/A,,/D,/F,/ A,/F,/D,/A,,/ | %31
 G,,/B,,/D,/G,/ B,/G,/D,/B,,/ F,,/F,/^A,/C/ F/C/A,/F,/ | %32
 B,,/F,/B,/D/ F/D/B,/F,/ [E,,E,]/G,/B,/E/ G/E/B,/G,/ | %33
 [A,,,A,,]/C,/G,/A,/ C/A,/G,/C,/ D,,/A,,/D,/F,/ A,/F,/D,/A,,/ | %34
 F,,/A,,/C,/F,/ A,/F,/C,/A,,/ B,,,/B,,/D,/F,/ B,/F,/D,/B,,/ | %35
 E,,/B,,/E,/^G,/ B,/G,/E,/B,,/ C,,/C,/E,/G,/ C/G,/E,/C,/ | %36
 [B,,,B,,]/D,/F,/B,/ D/B,/F,/D,/ E,,/D,/E,/^G,/ D/G,/E,/D,/ | %37
 A,,/C,/E,/A,/ C/A,/E,/C,/ F,,/C,/F,/A,/ C/A,/F,/C,/ | %38
 B,,/D,/F,/B,/ D/B,/F,/D,/ G,,/D,/G,/B,/ D/B,/G,/D,/ | %39
 C,,/C,/E,/G,/ C/G,/E,/C,/ B,,,/D,/F,/B,/ D/B,/F,/D,/ | %40
 E,,/B,,/E,/G,/ B,/G,/E,/B,,/ A,,,/A,,/C,/G,/ A,/G,/C,/A,,/ | %41
 D,,/A,,/D,/F,/ z2 [D,,D,]/A,/C/E/ z2 | [D,,D,]/F,/B,/D/ z2 [D,,D,]/A,/C/D/ z2 | %43
 [D,,D,]/F,/B,/D/ z2 [D,,D,]/A,/C/D/ z2 | [D,,D,]/F,/B,/D/ z2 [D,,D,]/G,/A,/C/ z2 | %45
 D,,/A,,/D,/F,/ z2 z/ F,/A,/D/ z2 | z8 | A,,/C,/E,/A,/ C/A,/E,/C,/ A,,/D,/F,/B,/ D/B,/F,/D,/ | %48
 A,,/C,/E,/A,/ C/A,/E,/C,/ A,,/C,/E,/A,/ C/A,/E,/C,/ | %49
 A,,/F,/A,/D/ F/D/A,/F,/ A,,/G,/B,/E/ G/E/B,/G,/ | %50
 A,,/F,/A,/D/ F/D/A,/F,/ A,,/F,/A,/D/ F/D/A,/F,/ | %51
 A,,/[K:treble]B,/D/G/ B/G/D/B,/[K:bass] A,,/[K:treble]A,/C/F/ A/F/C/A,/ | %52
[K:bass] A,,/G,/B,/E/ G/E/B,/G,/ A,,/F,/A,/D/ F/D/A,/F,/ | %53
 A,,/E,/G,/C/ E/C/G,/E,/ A,,/D,/F,/B,/ D/B,/F,/D,/ | %54
 A,,/C,/E,/A,/ C/A,/E,/C,/ A,,/D,/=F,/^G,/ B,/G,/F,/D,/ | %55
 A,,/D,/E,/G,/ _B,/G,/E,/D,/ A,,,/A,,/C,/G,/ A,/G,/C,/A,,/ | %56
[K:D][M:4/4] D,,/A,,/D,/F,/ D,,/A,,/D,/F,/ D,,/A,,/D,/F,/ A,/F,/D,/A,,/ | %57
 A,,,/A,,/C,/E,/ A,/E,/C,/A,,/ D,,/A,,/D,/F,/ A,/F,/D,/A,,/ | %58
 G,,/B,,/D,/G,/ B,/G,/D,/B,,/ F,,/F,/^A,/C/ F/C/A,/F,/ | %59
 B,,/F,/B,/D/ F/D/B,/F,/ [E,,E,]/G,/B,/E/ G/E/B,/G,/ | %60
 [A,,,A,,]/C,/G,/A,/ C/A,/G,/A,,/ D,,/A,,/D,/F,/ A,/F,/D,/B,,/ | %61
 F,,/A,,/D,/F,/ A,/F,/E,/A,,/ B,,,/B,,/D,/F,/ B,/F,/D,/B,,/ | %62
 E,,/B,,/E,/^G,/ B,/G,/E,/B,,/ C,,/C,/E,/G,/ C/G,/E,/C,/ | %63
 [B,,,B,,]/D,/F,/B,/ D/B,/F,/D,/ E,,/D,/E,/^G,/ D/G,/E,/D,/ | %64
 A,,/C,/E,/A,/ C/A,/E,/C,/ F,,/C,/F,/A,/ C/A,/G,/C,/ | %65
 B,,/D,/F,/B,/ D/B,/F,/D,/ G,,/D,/G,/B,/ D/B,/G,/D,/ | %66
 C,,/C,/E,/G,/ C/G,/E,/C,/ B,,,/D,/F,/B,/ D/B,/F,/D,/ | %67
 E,,/B,,/E,/G,/ B,/G,/E,/B,,/ A,,,/A,,/C,/G,/ A,/G,/C,/A,,/ | %68
 D,,/A,,/D,/F,/ z2 [D,,D,]/A,/C/E/ z2 | [D,,D,]/F,/B,/D/ z2 [D,,D,]/A,/C/E/ z2 | %70
 [D,,D,]/F,/B,/D/ z2 [D,,D,]/A,/C/E/ z2 | [D,,D,]/F,/B,/D/ z2 !///-![D,E,G,] A, [D,E,G,] z | %72
 D,,/A,,/D,/F,/ A,/F,/D,/A,,/ F,,/A,,/D,/F,/ A,/[K:treble]D/F/A/ | d z z2[K:bass] [D,F,A,D]2 z2 | %74
 [D,,D,]8 |] %75
V:5
 x8 | x8 | ([A,,,A,,]8 | [A,,,A,,]8) | ([A,,,A,,]8 | [A,,,A,,]8) | [A,,,A,,]8[K:treble] | x8 | %8
[K:bass] x8 | x8 | x8 | x8 | x8 | x8 | x8 | x8 | x8 | x8 | x8 | x8 | x8 | x8 | x8 | x8 | x8 | x8 | %26
 x8 | x8 | x8 | x8 | x8 | x8 | x8 | x8 | x8 | x8 | x8 | x8 | x8 | x8 | x8 | x8 | x8 | x8 | x8 | %45
 x8 | x8 | x8 | x8 | x8 | x8 | x/[K:treble] x7/2[K:bass] x/[K:treble] x7/2 |[K:bass] x8 | x8 | x8 | %55
 x8 |[K:D][M:4/4] x8 | x8 | x8 | x8 | x8 | x8 | x8 | x8 | x8 | x8 | x8 | x8 | x8 | x8 | x8 | x8 | %72
 x13/2[K:treble] x3/2 | x4[K:bass] x4 | x8 |] %75
V:6
 x8 | x8 | x8 | x8 | x8 | x8 |!8va(! x8!8va)! | x8 | x8 | x8 | x8 | x4 z2 A,/D/F/A/ | %12
 z2 A,/C/E/A/ z2 A,/D/F/A/ | z2 B,/D/G/B/ z2 C/F/^A/c/ | x8 | x4 z2 A,/D/F/A/ | %16
 z2 A,/C/F/A/ z2 B,/D/F/B/ | z2 ^G,/B,/E/^G/ z4 | z4 z2 ^G,/D/E/^G/ | x2 A,/C/E/A/ x4 | x8 | x8 | %22
 x8 | x8 | x4 [B=f]4 | x8 | x4 [d^f]4 | x8 | x4 [=fb]4 | x8 | x8 | x8 | x8 | x8 | x8 | x8 | x8 | %37
 x8 | x8 | x8 | x8 | x8 | x8 | x8 | x8 | x8 | x8 | x8 | x8 | x8 | x8 |!8va(! x8!8va)! | x8 | x8 | %54
 x8 | x8 |[K:D][M:4/4] x8 | x8 | x8 | x8 | x8 | x8 | x8 | x8 | x8 | x8 | x8 | x8 | x8 | x8 | x8 | %71
 x8 | x8 | x8 | x8 |] %75

